rospo-newyear-dark/symbolic/mimetypes/inode-directory-symbolic.svg

<svg height="16" width="16" xmlns="http://www.w3.org/2000/svg"><path d="m1 3v11s0 1 1 1h12s1 0 1-1v-9c0-1-1-1-1-1h-5l-2-2h-5s-1 0-1 1z" fill="#d3dae3"/></svg>

<svg xmlns="http://www.w3.org/2000/svg" width="16" height="16" version="1.1">
 <path style="fill:#d3dae3" d="M 1,3 V 14 C 1,14 1,15 2,15 H 14 C 14,15 15,15 15,14 V 5 C 15,4 14,4 14,4 H 9 L 7,2 H 2 C 2,2 1,2 1,3 Z"/>
</svg>
